SVG/digg.svg

<?xml version="1.0" encoding="utf-8"?>
<!-- Generated by IcoMoon.io -->
<!DOCTYPE svg PUBLIC "-//W3C//DTD SVG 1.1//EN" "http://www.w3.org/Graphics/SVG/1.1/DTD/svg11.dtd">
<svg version="1.1" xmlns="http://www.w3.org/2000/svg" xmlns:xlink="http://www.w3.org/1999/xlink" width="16" height="14" viewBox="0 0 16 14">
<path fill="#444444" d="M2.563 2.203h1.594v7.68h-4.156v-5.445h2.563v-2.234zM2.563 8.602v-2.883h-0.961v2.883h0.961zM4.797 4.437v5.445h1.602v-5.445h-1.602zM4.797 2.203v1.594h1.602v-1.594h-1.602zM7.039 4.437h4.164v7.359h-4.164v-1.273h2.563v-0.641h-2.563v-5.445zM9.602 8.602v-2.883h-0.961v2.883h0.961zM11.844 4.437h4.156v7.359h-4.156v-1.273h2.555v-0.641h-2.555v-5.445zM14.398 8.602v-2.883h-0.961v2.883h0.961z"></path>
</svg>

<svg xmlns="http://www.w3.org/2000/svg" viewBox="0 0 16 14"><path d="M2.563 2.203h1.594v7.68H0V4.438h2.564V2.204zm0 6.4V5.718h-.96V8.6h.96zm2.234-4.166v5.445H6.4V4.437H4.796zm0-2.234v1.594H6.4V2.203H4.796zM7.04 4.437h4.163v7.36H7.04v-1.274H9.6v-.64H7.04V4.436zM9.6 8.602V5.72h-.96V8.6h.96zm2.242-4.165H16v7.36h-4.156v-1.274H14.4v-.64h-2.556V4.436zm2.554 4.165V5.72h-.96V8.6h.96z" /></svg>
